X: 1125
T:Tell Her I Am (A56)
N: page A56
N: heptatonic
S:Trad, arr. Paddy O'Brien
R:jig
E:9
I:speed 350
M:6/8
K:G
B/2d/2|"G"edB GFG|"D"DED "G"GFG|\
"D"DED "C"~c2A|"G"BGE EBd| edB GFG|
"D"DED "G"GFG|"D"AGF "G"GBA|"C"GFE "D"D2:|\
d|"G"BAB dBG|BAB dBG|"Am"ABA ABA|
"D"AGF "Em"E2d|"G"BAB deg|"Am"age "D"~d2B|\
BAF "G"GBA|GFE "D"D2:| d|:"C"efg efg|
"D"dBG AGE|"Am"~A2 a aga|"G"bag ~e2 d|1\
efg efg|dBG "Am"AGE|agf "G"gba|
gfe "D"d^cd:|2 "D"def "G"gba|\
gfe "D"~d2B|"G"BAF GBA|GFE "D"D2||
